!!!COM: Joplin, Scott
!!!CDT: 1868/11/24/-1917/04/01/
!!!OTL: Leola
!!!ODE: Miss Minnie Wade
!!!ONB: Two Step
!!!ODT: 1905///
!!!PPR: American Music Syndicate
!!!PPP: St. Louis, Missouri
!!!PDT: 1905///
!!!ENC: Craig Stuart Sapp
!!!END: 2004/06/08/
!!!YEC: Copyright 2004 by Craig Stuart Sapp
!!!YEN: United States of America
**kern	**kern	**dynam
*staff2	*staff1	*staff1
*Ipiano	*Ipiano	*Ipiano
*>[I,A,A1,A,A2,B,B1,B,B2,C,D,D1,D,D2,E,E1,E,E2]	*>[I,A,A1,A,A2,B,B1,B,B2,C,D,D1,D,D2,E,E1,E,E2]	*>[I,A,A1,A,A2,B,B1,B,B2,C,D,D1,D,D2,E,E1,E,E2]
*>norep[I,A,A2,B,B2,C,D,D2,E,E2]	*>norep[I,A,A2,B,B2,C,D,D2,E,E2]	*>norep[I,A,A2,B,B2,C,D,D2,E,E2]
*>I	*>I	*>I
*clefF4	*clefG2	*clefG2
*k[b-e-a-d-]	*k[b-e-a-d-]	*k[b-e-a-d-]
*M2/4	*M2/4	*M2/4
*MM90	*MM90	*MM90
8E- EE-	8r	.
=1!|:	=1!|:	=1!|:
*>A	*>A	*>A
8A-L AA-	16r	.
.	16eee-LL	mf
8cJ A- E-	16ccc	.
.	16aa-JJ	.
8cL C	16ee-LK	p
.	8ff	.
8AnJ AAn	.	.
.	16ccJk	.
=2	=2	=2
8B-L BB-	16dd-LL	.
.	16g	.
8d-J G E-	16ff	.
.	16ee-JJ	.
8d-L G E-	16dd-LL	.
.	16b-	.
8E-J EE-	16g	.
.	16e-JJ	.
=3	=3	=3
8A-L AA-	16r	.
.	16eee-LL	.
8cJ A- E-	16ccc	.
.	16aa-JJ	.
8cL C	16ee-LK	.
.	8ff	.
8AnJ AAn	.	.
.	16ccJk	.
=4	=4	=4
8B-L BB-	16dd-LL	.
.	16g	.
8d-J G E-	16ff	.
.	16ee-JJ	.
4d- G E-	16dd-LL	.
.	16b-	.
.	16g	.
.	16e-JJ	.
=5	=5	=5
8cL G En	8b-L	.
8cJ G E	16ccL	.
.	16b-JJ	.
8cL A- F	16a-LL	.
.	16b-J	.
8fJ c A-	8ccJ	.
=6	=6	=6
8fL c An	8ee-L	.
8fJ c A	16ffL	.
.	16ee-JJ	.
8fL d- B-	16dd-LL	.
.	16ee-J	.
8fJ d- B-	8ffJ	.
=7	=7	=7
4Dn	16r	.
.	16a-LL	.
.	16f	.
.	16BnJJ	.
4F	16r	.
.	16bnLL	.
.	16a-	.
.	16dnJJ	.
=8	=8	=8
8A-L	16r	.
.	16ddnLL	.
8BnJ	16f	.
.	16a-JJ	.
4c	16ee-LL	.
.	16a-	.
.	16cc	.
.	16ee-JJ	.
=9	=9	=9
16FLL FF	16aa-LL a-	f
16E- EE-	16gg g	.
16D- DD-	16ff f	.
16CJJ CC	16ee-JJ e-	.
8BB-L BBB-	8dd-L b- f d-	.
8BBnJ BBBn	8ddnJ a- f dn	.
=10	=10	=10
*	*^	*
8CL CC	8.ee-L	[4a- [e-	.
8cJ A- E-	.	.	.
.	16ccJk	.	.
8A-L AA-	16dd-LK	16a-]LK e-]	.
.	8ee-	8.f#J	.
8AnJ AAn	.	.	.
.	16ccJk	.	.
=11	=11	=11	=11
8B-L BB-	8.dd-L	[4g	.
8d-J G E-	.	.	.
.	16b-Jk	.	.
8E-L EE-	16ccLK	16gLK]	.
.	8dd-	8.gJ	.
8d-J G E-	.	.	.
.	16b-Jk	.	.
=12	=12	=12	=12
8A-L AA-	8.ccL	4a-	.
8cJ A- E-	.	.	.
.	16a-Jk	.	.
8A-L AA-	16b-LK	16r	.
.	8cc	8.e-	.
8G-J GG-	.	.	.
.	16a-Jk	.	.
*	*v	*v	*
=13	=13	=13
16FLL FF	16aa-LL a-	.
16E- EE-	16gg g	.
16D- DD-	16ff f	.
16CJJ CC	16ee-JJ e-	.
8BB-L BBB-	8dd-L b- f d-	.
8BBnJ BBBn	8ddnJ a- f dn	.
=14	=14	=14
*	*^	*
8CL CC	8.ee-L	[4a- [e-	.
8cJ A- E-	.	.	.
.	16ccJk	.	.
8A-L AA-	16dd-LK	16a-]LK e-]	.
.	8ee-	8.f#J	.
8AnJ AAn	.	.	.
.	16ccJk	.	.
*	*v	*v	*
=15	=15	=15
8B-L BB-	8.dd-L g	.
8d-J G E-	.	.
.	16b-Jk	.
8E-L EE-	16ccLL	.
.	16dd-	.
8d-J G E-	16f	.
.	16gJJ	.
=16	=16	=16
*>A1	*>A1	*>A1
8A-L AA-	[4a-	.
8cJ A- E-	.	.
8cL A- E-	8a-]	.
8E-J EE-	8r	.
=17:|!	=17:|!	=17:|!
*>A2	*>A2	*>A2
8A-L AA-	8a-L	.
8cJ A- E-	8ccJ	.
8cL A- E-	8ffL cc	.
8AnJ AAn	8ff#J cc	.
=18!|:	=18!|:	=18!|:
*>B	*>B	*>B
8B-L BB-	16r	.
.	16ggLL ee-	f
8d-J G E-	16gg ee-	.
.	16aa-JJ ff	.
8E-L EE-	16bb-LK gg	.
.	8gg ee-	.
8d-J G E-	.	.
.	16ffJk dd-	.
=19	=19	=19
8E-L EE-	16b-LL g	.
.	16bn a-	.
8d-J G E-	16cc an	.
.	[16dd-JJ [b-	.
8E-L EE-	16dd-]LL b-]	.
.	16ee-J cc	.
8d-J G E-	8dd-J b-	.
=20	=20	=20
8A-L AA-	16r	.
.	16ccLL a-	.
8cJ A- E-	16cc a-	.
.	16dd-JJ b-	.
8E-L EE-	16ee-LK cc	.
.	8aa- cc	.
8cJ A- E-	.	.
.	16ffJk cc	.
=21	=21	=21
8A-L AA-	16ee-LL cc	.
.	16dd- b-	.
8cJ A- E-	16cc a-	.
.	[16ee-JJ [cc	.
8A-L AA-	16ee-]LL cc]	.
.	16ddnJ bn	.
8F#J FF#	8ee-J cc	.
=22	=22	=22
8GL GG	16r	.
.	16dd-LL b-	.
8d-J G E-	16dd- b-	.
.	16ee-JJ cc	.
8E-L EE-	16ffLK dd-	.
.	8dd- b-	.
8d-J G E-	.	.
.	16b-Jk g	.
=23	=23	=23
8B-L BB-	16gLL e-	.
.	16a- f	.
8d-J G E-	16an f#	.
.	[16b-JJ [g	.
8E-L EE-	16b-]LL g]	.
.	16ccJ a-	.
8d-J G E-	8dd-J b-	.
=24	=24	=24
8A-L AA-	16r	.
.	16ccLL a-	.
8cJ A- E-	16cc a-	.
.	16dd-JJ b-	.
8E-L EE-	16ee-LK cc	.
.	8aa- cc	.
8cJ A- E-	.	.
.	16ffJk cc	.
=25	=25	=25
8A-L AA-	16ee-LL cc	.
.	16aa- cc	.
8cJ A- E-	16bb- dd-	.
.	[16cccJJ [ee-	.
8A-L AA-	16ccc]LL ee-]	.
.	16ee- cc	.
8AnJ AAn	16ff cc	.
.	16ff#JJ cc	.
=26	=26	=26
8B-L BB-	16r	.
.	16ggLL ee-	.
8d-J G E-	16gg ee-	.
.	16aa-JJ ff	.
8E-L EE-	16bb-LK gg	.
.	8gg ee-	.
8d-J G E-	.	.
.	16ffJk dd-	.
=27	=27	=27
8E-L EE-	16b-LL g	.
.	16bn a-	.
8d-J G E-	16cc an	.
.	[16dd-JJ [b-	.
8E-L EE-	16dd-]LL b-]	.
.	16ee-J cc	.
8d-J G E-	8dd-J b-	.
=28	=28	=28
8A-L AA-	16r	.
.	16ccLL a-	.
8cJ A- E-	16ee-	.
.	16a-JJ	.
*	*^	*
8E-L EE-	16g-LK	4g-	.
.	8ee- cc	.	.
8AA-J AAA-	.	.	.
.	16ffJk	.	.
=29	=29	=29	=29
8D-L DD-	8dd-L	2a- f	.
8d-J A- F	16a-L	.	.
.	16dd-JJ	.	.
8AA-L AAA-	16ffLK	.	.
.	8aa-	.	.
8d-J A- F	.	.	.
.	16ffJk	.	.
*	*v	*v	*
=30	=30	=30
8D-L DD-	16r	.
.	16b-LL	mf
8d-J A- F	16a-	.
.	16fJJ	.
8DnL DDn	16bnLK	.
.	8a-	.
8BnJ A- F	.	.
.	16fJk	.
=31	=31	=31
8E-L EE-	16ccLL	.
.	16a-	.
8cJ A- E-	16e-	.
.	[16ee-JJ	.
4c A- F	16ee-LL]	.
.	16cc	.
.	16e-	.
.	16fJJ	.
=32	=32	=32
*	*^	*
8FL FF	8.a-L	4f dn	.
8BB-J BBB-	.	.	.
.	16b-Jk	.	.
4E- EE-	16ccLK	4g d-	.
.	8b-	.	.
.	16ccJk	.	.
*	*v	*v	*
=33	=33	=33
*>B1	*>B1	*>B1
8A-L AA-	8a-L e- c	.
8cJ A- E-	8ccJ	.
8cL A- E-	8ffL cc	.
8AnJ AAn	8ff#J cc	.
=34:|!	=34:|!	=34:|!
*>B2	*>B2	*>B2
8A-L AA-	4a- e- c	.
8E- EE-	.	.
8AA-J AAA-	8aa- ee- cc a-	.
8E- EE-	8r	.
=35	=35	=35
*>C	*>C	*>C
8A-L AA-	16r	.
.	16eee-LL	mf
8cJ A- E-	16ccc	.
.	16aa-JJ	.
8cL C	16ee-LK	.
.	8ff	.
8AnJ AAn	.	.
.	16ccJk	.
=36	=36	=36
8B-L BB-	16dd-LL	.
.	16g	.
8d-J G E-	16ff	.
.	16ee-JJ	.
8d-L G E-	16dd-LL	.
.	16b-	.
8E-J EE-	16g	.
.	16e-JJ	.
=37	=37	=37
8A-L AA-	16r	.
.	16eee-LL	.
8cJ A- E-	16ccc	.
.	16aa-JJ	.
8cL C	16ee-LK	.
.	8ff	.
8AnJ AAn	.	.
.	16ccJk	.
=38	=38	=38
8B-L BB-	16dd-LL	.
.	16g	.
8d-J G E-	16ff	.
.	16ee-JJ	.
4d- G E-	16dd-LL	.
.	16b-	.
.	16g	.
.	16e-JJ	.
=39	=39	=39
8cL G En	8b-L	.
8cJ G E	16ccL	.
.	16b-JJ	.
8cL A- F	16a-LL	.
.	16b-J	.
8fJ c A-	8ccJ	.
=40	=40	=40
8fL c An	8ee-L	.
8fJ c A	16ffL	.
.	16ee-JJ	.
8fL d- B-	16dd-LL	.
.	16ee-J	.
8fJ d- B-	8ffJ	.
=41	=41	=41
4Dn	16r	.
.	16a-LL	.
.	16f	.
.	16BnJJ	.
4F	16r	.
.	16bnLL	.
.	16a-	.
.	16dnJJ	.
=42	=42	=42
8A-L	16r	.
.	16ddnLL	.
8BnJ	16f	.
.	16a-JJ	.
4c	16ee-LL	.
.	16a-	.
.	16cc	.
.	16ee-JJ	.
=43	=43	=43
16FLL FF	16aa-LL a-	f
16E- EE-	16gg g	.
16D- DD-	16ff f	.
16CJJ CC	16ee-JJ e-	.
8BB-L BBB-	8dd-L b- f d-	.
8BBnJ BBBn	8ddnJ a- f dn	.
=44	=44	=44
*	*^	*
8CL CC	8.ee-L	[4a- [e-	.
8cJ A- E-	.	.	.
.	16ccJk	.	.
8A-L AA-	16dd-LK	16a-']LK e-]	.
.	8ee-	8.f#J	.
8AnJ AAn	.	.	.
.	16ccJk	.	.
=45	=45	=45	=45
8B-L BB-	8.dd-L	[4g	.
8d-J G E-	.	.	.
.	16b-Jk	.	.
8E-L EE-	16ccLK	16gLK]	.
.	8dd-	8.gJ	.
8d-J G E-	.	.	.
.	16b-Jk	.	.
=46	=46	=46	=46
8A-L AA-	8.ccL	4a-	.
8cJ A- E-	.	.	.
.	16a-Jk	.	.
8A-L AA-	16b-LK	16r	.
.	8cc	8.e-	.
8G-J GG-	.	.	.
.	16a-Jk	.	.
*	*v	*v	*
=47	=47	=47
16FLL FF	16aa-LL a-	.
16E- EE-	16gg g	.
16D- DD-	16ff f	.
16CJJ CC	16ee-JJ e-	.
8BB-L BBB-	8dd-L b- f d-	.
8BBnJ BBBn	8ddnJ a- f dn	.
=48	=48	=48
*	*^	*
8CL CC	8.ee-L	[4a- [e-	.
8cJ A- E-	.	.	.
.	16ccJk	.	.
8A-L AA-	16dd-LK	16a-]LK e-]	.
.	8ee-	8.e#J	.
8AnJ AAn	.	.	.
.	16ccJk	.	.
*	*v	*v	*
=49	=49	=49
8B-L BB-	8.dd-L g	.
8d-J G E-	.	.
.	16b-Jk	.
8E-L EE-	16ccLL	.
.	16dd-	.
8d-J G E-	16f	.
.	16gJJ	.
=50	=50	=50
8A-L AA-	4a- c	.
8E-	.	.
8AA-J	8aa- cc a-	.
8r	8r	.
=51	=51	=51
*>D	*>D	*>D
*k[b-e-a-d-g-]	*k[b-e-a-d-g-]	*k[b-e-a-d-g-]
8E-L EE-	16a-LL	.
.	16cc	mp
8g-J c A-	16ee-	.
.	[16bb-JJ [gg- [cc	.
8AA-L AAA-	16bb-]LL gg-] cc]	.
.	16ccJ	.
8g-J c A-	8bb-J aa- cc	.
=52	=52	=52
8E-L EE-	16a-LL	.
.	16cc	.
8g-J c A-	16ee-	.
.	[16bb-JJ [gg- [cc	.
8E-L EE-	16bb-]LL gg-] cc]	.
.	16ccJ	.
8EnJ EEn	8bb-J aa- cc	.
=53	=53	=53
8FL FF	16dd-LL	.
.	16aa-	.
8fJ d- A-	16ee-	.
.	16aa-JJ	.
8D-L DD-	16ffLL	.
.	16aa-	.
8fJ d- A-	16ee-	.
.	[16dd-JJ	.
=54	=54	=54
4en d- B- Gn	16dd-LL]	.
.	16b-	.
.	16dd-	.
.	16eenJJ	.
4f d- A-	16ffLL	.
.	16a-	.
.	16b-	.
.	16dd-JJ	.
=55	=55	=55
8E-L EE-	16a-LL	.
.	16cc	.
8g-J c A-	16ee-	.
.	[16bb-JJ [gg- [cc	.
8AA-L AAA-	16bb-]LL gg-] cc]	.
.	16ccJ	.
8g-J c A-	8aa-J gg- cc	.
=56	=56	=56
8E-L EE-	16a-LL	.
.	16cc	.
8g-J c A-	16ee-	.
.	[16bb-JJ [gg- [cc	.
8E-L EE-	16bb-]LL gg-] cc]	.
.	16ccJ	.
8EnJ EEn	8aa-J gg- cc	.
=57	=57	=57
8FL FF	16dd-LL	.
.	16aa-	.
8fJ d- A-	16ee-	.
.	16aa-JJ	.
8D-L DD-	16ffLL	.
.	16aa-	.
8fJ d- A-	16ee-	.
.	[16dd-JJ	.
=58	=58	=58
4en d- B- Gn	16dd-LL]	.
.	16b-	.
.	16dd-	.
.	16eenJJ	.
16fLL d- A-	16ffLL	.
16d- D-	16dd-	.
16c C	16a-	.
16B-JJ BB-	16g-JJ	.
=59	=59	=59
8AnL AAn	16fLL	.
.	16an	.
8fJ e- A	16cc	.
.	[16gg-JJ [ee- [a	.
8FL FF	16gg-]LL ee-] a]	.
.	16aJ	.
8fJ e- A	8ffJ ee- a	.
=60	=60	=60
8AnL AAn	16fLL	.
.	16an	.
8fJ e- A	16cc	.
.	[16gg-JJ [ee- [a	.
8FL FF	16gg-]LL ee-] a]	.
.	16aJ	.
8fJ e- A	8ffJ ee- a	.
=61	=61	=61
8B-L BB-	16b-LL	.
.	16ff	.
8fJ d- B-	16cc	.
.	16ffJJ	.
8B-L BB-	16dd-LL	.
.	16ff	.
8fJ d- B-	16cc	.
.	16b-JJ	.
=62	=62	=62
4f e- An	16r	.
.	16ffLL	.
.	16dd-	.
.	16ccJJ	.
8f d- B-	8b-	.
8r	8r	.
=63	=63	=63
8E-L EE-	16g-LL	.
.	16b-	.
8g-J e- B-	16gg-	.
.	16b-JJ	.
8G-L GG-	16dd-LK	.
.	8bb- dd- b-	.
8EnJ EEn	.	.
.	[16aa-Jk [dd- [a-	.
=64	=64	=64
8FL FF	8.aa-]L dd-] a-]	.
8fJ d- A-	.	.
.	16dd-Jk	.
8A-L AA-	16ffLL	.
.	16f	.
8fJ d- A-	16b-	.
.	16a-JJ	.
=65	=65	=65
*	*^	*
8E-L EE-	16gnLL	8.gnL	.
.	16b-	.	.
8e-J B- Gn	16dd-	.	.
.	[16g-JJ	16g-Jk	.
8AA-L AAA-	16g-LL	8g-L]	.
.	16ffJ	.	.
8cJ A- G-	8ee-J	8ccJ g-	.
*	*v	*v	*
=66	=66	=66
*>D1	*>D1	*>D1
8D-L DD-	8dd-L f	.
8d-J A- F	16a-L	.
.	16b-JJ	.
8fL d- A-	16dd-LL	.
.	16cc	.
8DnJ DDn	16b-	.
.	16b--JJ	.
=67:|!	=67:|!	=67:|!
*>D2	*>D2	*>D2
8D-L DD-	4dd- f	.
8d-J D-	.	.
8A-L AA-	16ee-LL	.
.	16cc	.
8G-J GG-	16ee-	.
.	16ccJJ	.
=68	=68	=68
*>E	*>E	*>E
*k[b-e-a-d-]	*k[b-e-a-d-]	*k[b-e-a-d-]
*^	*	*
8FL	4F FF	16dd-LL	mf
.	.	16ee-	.
8d-J A- F	.	16ff	.
.	.	16ggJJ	.
8F-L	4F- FF-	16aa-LL	.
.	.	16dd-	.
8d-J A- F-	.	16ee-	.
.	.	16dd-JJ	.
*v	*v	*	*
=69	=69	=69
8E-L EE-	8ccL	.
8cJ A- E-	16aa-L	.
.	[16ffJJ	.
8A-L AA-	16ffLL]	.
.	16cc	.
8AnJ AAn	16ee-	.
.	16ccJJ	.
=70	=70	=70
8B-L BB-	8dd-L	.
8d-J G E-	16ggL	.
.	[16ffJJ	.
8E-L EE-	16ffLL]	.
.	16dd-	.
8GJ GG	16ee-	.
.	16dd-JJ	.
=71	=71	=71
8A-L AA-	8ccL	.
8cJ A- E-	16aa-L	.
.	[16ffJJ	.
8A-L AA-	16ffLL]	.
.	16cc	.
8G-J GG-	16ee-	.
.	16ccJJ	.
=72	=72	=72
*^	*	*
8FL	4F FF	16dd-LL	.
.	.	16ee-	.
8d-J A- F	.	16ff	.
.	.	16ggJJ	.
*	*	*^	*
8D-L	4D- DD-	16aa-LL	4ff	.
.	.	16gg	.	.
8d-J A- F	.	16aa-	.	.
.	.	16bb-JJ	.	.
*v	*v	*	*	*
*	*v	*v	*
=73	=73	=73
8CL CC	8cccL aa- ff cc	.
8cJ A- F	16aa-L	.
.	[16ffJJ	.
8CL CC	16ffLL]	.
.	16cc	.
8cJ A- F	16dd-	.
.	16ccJJ	.
=74	=74	=74
8CL CC	8bb-L gg een cc	.
8d-J c En	16ggL	.
.	[16eenJJ	.
8CL CC	16eeLL]	.
.	16cc	.
8d-J c E	16dd-	.
.	16ccJJ	.
=75	=75	=75
4c A- F	4ff	.
8A-L AA-	16ee-LL	mf
.	16cc	.
8G-J GG-	16ee-	.
.	16ccJJ	.
=76	=76	=76
8FL FF	16dd-LL	.
.	16ee-	.
8d-J A- F	16ff	.
.	16ggJJ	.
8F-L FF-	16aa-LL	.
.	16dd-	.
8d-J A- F-	16ee-	.
.	16dd-JJ	.
=77	=77	=77
8E-L EE-	8ccL	.
8cJ A- E-	16aa-L	.
.	[16ffJJ	.
8A-L AA-	16ffLL]	.
.	16cc	.
8AnJ AAn	16ee-	.
.	16ccJJ	.
=78	=78	=78
8B-L BB-	8dd-L	.
8d-J G E-	16ggL	.
.	[16ffJJ	.
8E-L EE-	16ffLL]	.
.	16dd-	.
8GJ GG	16ee-	.
.	16dd-JJ	.
=79	=79	=79
8A-L AA-	8ccL	.
8cJ A- E-	16aa-L	.
.	[16ffJJ	.
8A-L AA-	16ffLL]	.
.	16cc	.
8G-J GG-	16ee-	.
.	16ccJJ	.
=80	=80	=80
8FL FF	16dd-LL	.
.	16ee-	.
8d-J A- F	16ff	.
.	16ggJJ	.
8F-L FF-	16aa-LL	.
.	16gg	.
8d-J A- F-	16aa-	.
.	16bb-JJ	.
=81	=81	=81
8E-L EE-	8cccL aa- cc	.
8cJ A- E-	16bb-L	.
.	[16ffJJ	.
8A-L AA-	16ffLL]	.
.	16cc	.
8AnJ AAn	16ee-	.
.	16ccJJ	.
=82	=82	=82
8B-L BB-	8dd-L	.
8d-J G E-	16ggL	.
.	[16ffJJ	.
8E-L EE-	16ffLL]	.
.	16gJ	.
8d-J G E-	8ee-J	.
=83	=83	=83
*>E1	*>E1	*>E1
8A-L AA-	4a-	.
8cJ A- E-	.	.
8A-L AA-	16ee-LL	.
.	16cc	.
8G-J GG-	16ee-	.
.	16ccJJ	.
=84:|!	=84:|!	=84:|!
*>E2	*>E2	*>E2
8A-L AA-	4a- c	.
8E- EE-	.	.
8AA-J AAA-	8aa- cc a-	.
==	==	==
*-	*-	*-
!!!ENC: Craig Stuart Sapp
!!!END: 2008/02/23
!!!EEV: 2018/06/01
